X:1
T:Bung your Eye
M:6/8
L:1/8
K:Amin
E|ABA     c2d|edc TB2A|GAG    TB2c|ded BAG|ABA c2d|edc Bcd|e2A AB^G|A3 c2:|
e|c>de/f/ g2a|gec  gec|G>AB/c/ d2e|deg dBG|cde g2a|gec deg|a2A AB^G|A3 c2:|


%%  2. ===============================================================================

% +&S&tick the &M&inr.+
%
% *SETT to your Partner, and cast off; that again.  *Cross up one pair, and sett;
% that again.  *THREE hands round with the first Woman, as much with the second
% Man.  *Lead out at both Sides.

% @@@@@@@@@@@@@@@@@@@@@@@@@@@@@@@@@@@@@@@

